X: 5
T:La Chien au Fenetre (3 time)
M:3/8
L:1/8
R:Bourree (3 time)
Z:Steve Mansfield
K:G
d | gdB | G>e d/B/ | cAA | A2d | fed | cde | d3 | def |
gdB | G>e d/B/ | cAA | A2e | fed | cBA | GGG | G2 ||
<end>
<start>
